icons/globe.svg

<svg width="24" height="24" viewBox="0 0 24 24" fill="none" xmlns="http://www.w3.org/2000/svg">
<path fill-rule="evenodd" clip-rule="evenodd" d="M17.2549 2.62472C17.6232 2.2132 18.2554 2.17817 18.6669 2.5465C20.7112 4.37614 22 7.03819 22 9.99996C22 15.1853 18.0533 19.4489 13 19.9506V21H17C17.5523 21 18 21.4477 18 22C18 22.5523 17.5523 23 17 23H7.00001C6.44772 23 6.00001 22.5523 6.00001 22C6.00001 21.4477 6.44772 21 7.00001 21H11V19.9505C8.44239 19.6964 6.16772 18.4782 4.54656 16.6669C4.17824 16.2553 4.21326 15.6231 4.62478 15.2548C5.03631 14.8865 5.66851 14.9215 6.03683 15.333C7.50312 16.9713 9.63078 18 12 18C16.4183 18 20 14.4182 20 9.99996C20 7.63072 18.9714 5.50305 17.3331 4.03677C16.9216 3.66844 16.8866 3.03625 17.2549 2.62472ZM12 4.99996C9.23859 4.99996 7.00002 7.23853 7.00002 9.99996C7.00002 12.7614 9.23859 15 12 15C14.7614 15 17 12.7614 17 9.99996C17 7.23853 14.7614 4.99996 12 4.99996ZM5.00002 9.99996C5.00002 6.13396 8.13402 2.99996 12 2.99996C15.866 2.99996 19 6.13396 19 9.99996C19 13.8659 15.866 17 12 17C8.13402 17 5.00002 13.8659 5.00002 9.99996Z" fill="black"/>
</svg>

<svg
  width="24"
  height="24"
  viewBox="0 0 24 24"
  xmlns="http://www.w3.org/2000/svg"
>
  <path
    fill-rule="evenodd"
    clip-rule="evenodd"
    d="M17.255 2.625a1 1 0 0 1 1.412-.079A9.977 9.977 0 0 1 22 10c0 5.185-3.947 9.449-9 9.95V21h4a1 1 0 1 1 0 2H7a1 1 0 1 1 0-2h4v-1.05a9.98 9.98 0 0 1-6.453-3.283 1 1 0 0 1 1.49-1.334A8 8 0 1 0 17.333 4.037a1 1 0 0 1-.078-1.412zM12 5a5 5 0 1 0 0 10 5 5 0 0 0 0-10zm-7 5a7 7 0 1 1 14 0 7 7 0 0 1-14 0z"
  />
</svg>
